app/assets/images/idv/in-person.svg

<svg width="100" height="100" viewBox="0 0 100 100" fill="none" xmlns="http://www.w3.org/2000/svg">
<g filter="url(#filter0_d_418_16125)">
<path d="M50 94C74.3005 94 94 74.3005 94 50C94 25.6995 74.3005 6 50 6C25.6995 6 6 25.6995 6 50C6 74.3005 25.6995 94 50 94Z" fill="white"/>
</g>
<path d="M50.0004 89.6C71.8709 89.6 89.6004 71.8705 89.6004 50C89.6004 28.1295 71.8709 10.4 50.0004 10.4C28.1299 10.4 10.4004 28.1295 10.4004 50C10.4004 71.8705 28.1299 89.6 50.0004 89.6Z" fill="#5D8EBA"/>
<path d="M50.0004 85.64C69.6838 85.64 85.6404 69.6834 85.6404 50C85.6404 30.3166 69.6838 14.36 50.0004 14.36C30.3169 14.36 14.3604 30.3166 14.3604 50C14.3604 69.6834 30.3169 85.64 50.0004 85.64Z" fill="white"/>
<rect x="23.0605" y="34.6215" width="52.7879" height="42.6364" rx="2" fill="#C8D3DD"/>
<rect x="32.1973" y="49.849" width="12.1818" height="26.3939" fill="#EDF3FB"/>
<path d="M20.0156 21.394C20.0156 20.2895 20.9111 19.394 22.0156 19.394H81.4314C82.8707 19.394 83.8388 20.8686 83.2665 22.1893L78.4013 33.4165C78.0844 34.1479 77.3634 34.6213 76.5662 34.6213H22.0156C20.9111 34.6213 20.0156 33.7259 20.0156 32.6213V21.394Z" fill="#C8D3DD"/>
<rect x="24.0605" y="35.6215" width="50.7879" height="41.6515" rx="1" stroke="#1B1B1B" stroke-width="2"/>
<rect x="32.1816" y="48.8185" width="13.2273" height="28.4545" rx="1" stroke="#1B1B1B" stroke-width="2"/>
<path d="M20 21.394C20 20.8418 20.4477 20.394 21 20.394H83.0136C83.7253 20.394 84.2092 21.1166 83.9382 21.7748L78.4792 35.0324C78.3249 35.4071 77.9598 35.6516 77.5546 35.6516H21C20.4477 35.6516 20 35.2039 20 34.6516V21.394Z" stroke="#1B1B1B" stroke-width="2"/>
<rect x="53" y="40.9998" width="17" height="12" rx="1" stroke="#1B1B1B" stroke-width="2"/>
<path d="M75.8486 68.1215H45.3941" stroke="#1B1B1B" stroke-width="2"/>
<path d="M31.1816 68.1215H23.0604" stroke="#1B1B1B" stroke-width="2"/>
<rect x="34.8761" y="7.98284" width="31.3521" height="21.3558" rx="0.984487" fill="#EDF3FB" stroke="#1B1B1B" stroke-width="1.96897"/>
<path d="M49.88 15.7701C50.2414 15.4771 50.7586 15.4771 51.12 15.7701L65.9165 27.7663C66.6369 28.3504 66.2239 29.5155 65.2965 29.5155L35.7035 29.5155C34.7761 29.5155 34.3631 28.3504 35.0835 27.7663L49.88 15.7701Z" fill="#EDF3FB" stroke="#1B1B1B" stroke-width="1.96897"/>
<path d="M51.2043 20.0598C50.8603 20.3081 50.396 20.3081 50.052 20.0598L35.6827 9.68967C34.9081 9.13063 35.3036 7.90688 36.2589 7.90688L64.9975 7.90688C65.9528 7.90688 66.3482 9.13064 65.5736 9.68967L51.2043 20.0598Z" fill="#EDF3FB" stroke="#1B1B1B" stroke-width="1.96897"/>
<defs>
<filter id="filter0_d_418_16125" x="0" y="0" width="100" height="100" filterUnits="userSpaceOnUse" color-interpolation-filters="sRGB">
<feFlood flood-opacity="0" result="BackgroundImageFix"/>
<feColorMatrix in="SourceAlpha" type="matrix" values="0 0 0 0 0 0 0 0 0 0 0 0 0 0 0 0 0 0 127 0" result="hardAlpha"/>
<feOffset/>
<feGaussianBlur stdDeviation="3"/>
<feComposite in2="hardAlpha" operator="out"/>
<feColorMatrix type="matrix" values="0 0 0 0 0 0 0 0 0 0 0 0 0 0 0 0 0 0 0.24 0"/>
<feBlend mode="normal" in2="BackgroundImageFix" result="effect1_dropShadow_418_16125"/>
<feBlend mode="normal" in="SourceGraphic" in2="effect1_dropShadow_418_16125" result="shape"/>
</filter>
</defs>
</svg>

<svg xmlns="http://www.w3.org/2000/svg" width="100" height="100" fill="none" viewBox="0 0 100 100"><g filter="url(#a)"><path fill="#fff" d="M50 94c24.3 0 44-19.7 44-44S74.3 6 50 6 6 25.7 6 50s19.7 44 44 44Z"/></g><path fill="#5D8EBA" d="M50 89.6c21.87 0 39.6-17.73 39.6-39.6S71.87 10.4 50 10.4 10.4 28.13 10.4 50 28.13 89.6 50 89.6Z"/><path fill="#fff" d="M50 85.64c19.684 0 35.64-15.957 35.64-35.64S69.684 14.36 50 14.36c-19.683 0-35.64 15.957-35.64 35.64S30.317 85.64 50 85.64Z"/><rect width="52.788" height="42.636" x="23.061" y="34.621" fill="#C8D3DD" rx="2"/><path fill="#EDF3FB" d="M32.197 49.849h12.182v26.394H32.197z"/><path fill="#C8D3DD" d="M20.016 21.394a2 2 0 0 1 2-2H81.43a2 2 0 0 1 1.835 2.795L78.4 33.416a2 2 0 0 1-1.835 1.205h-54.55a2 2 0 0 1-2-2V21.394Z"/><rect width="50.788" height="41.651" x="24.061" y="35.621" stroke="#1B1B1B" stroke-width="2" rx="1"/><rect width="13.227" height="28.454" x="32.182" y="48.819" stroke="#1B1B1B" stroke-width="2" rx="1"/><path stroke="#1B1B1B" stroke-width="2" d="M20 21.394a1 1 0 0 1 1-1h62.014a1 1 0 0 1 .924 1.38L78.48 35.033a1 1 0 0 1-.924.62H21a1 1 0 0 1-1-1V21.394Z"/><rect width="17" height="12" x="53" y="41" stroke="#1B1B1B" stroke-width="2" rx="1"/><path stroke="#1B1B1B" stroke-width="2" d="M75.849 68.121H45.394m-14.212 0H23.06"/><rect width="31.352" height="21.356" x="34.876" y="7.983" fill="#EDF3FB" stroke="#1B1B1B" stroke-width="1.969" rx=".984"/><path fill="#EDF3FB" stroke="#1B1B1B" stroke-width="1.969" d="M49.88 15.77a.985.985 0 0 1 1.24 0l14.797 11.996c.72.584.307 1.75-.62 1.75H35.703c-.928 0-1.34-1.166-.62-1.75L49.88 15.77Z"/><path fill="#EDF3FB" stroke="#1B1B1B" stroke-width="1.969" d="M51.204 20.06a.984.984 0 0 1-1.152 0L35.682 9.69c-.774-.56-.378-1.783.577-1.783h28.739c.955 0 1.35 1.224.576 1.783l-14.37 10.37Z"/><defs><filter id="a" width="100" height="100" x="0" y="0" color-interpolation-filters="sRGB" filterUnits="userSpaceOnUse"><feFlood flood-opacity="0" result="BackgroundImageFix"/><feColorMatrix in="SourceAlpha" result="hardAlpha" values="0 0 0 0 0 0 0 0 0 0 0 0 0 0 0 0 0 0 127 0"/><feOffset/><feGaussianBlur stdDeviation="3"/><feComposite in2="hardAlpha" operator="out"/><feColorMatrix values="0 0 0 0 0 0 0 0 0 0 0 0 0 0 0 0 0 0 0.24 0"/><feBlend in2="BackgroundImageFix" result="effect1_dropShadow_418_16125"/><feBlend in="SourceGraphic" in2="effect1_dropShadow_418_16125" result="shape"/></filter></defs></svg>
